X: 4055
M: C|
L: 1/8
K: D
|:\
dDdD dAFA | dDdD egfe |\
dDdD dAFA | BdAF E2E2 ||
afaf gege | fefe ecBA |\
afaf gege | fdec d/d/d d2 :|


